X: 72
T: Folk Tale Song (a)
N: Derived from pawnee72.krn
O: Oklahoma, U.S.A.
N: from Pawnee Music by Frances Densmore, 1926
Z: transcribed to **kern format by David Huron, August 2000
C: Skidi and Chaui Bands, 1919
L: 1/4
M: 2/4
Q: 1/4=88
K: E clef=bass
%%linebreak <none>
EB,// B,3// | 
E2 | 
EB, | 
B,2 | 
EB,// B,3// | 
E2 | 
E2 | 
E2 | 
E/> B,/B, | 
C/ B,/A, | 
A,2 | 
E,E, | 
E,2 | 
E/ B,/B,[M:3/4] | 
B,EB,/ A,/[M:2/4] | 
G,/ G,/G, | 
G,2 | 
E,E, | 
E,2 | 
EB,// B,3// | 
E2 | 
EB,2 | 
B,2 | 
EB,// B,3// | 
E2 | 
EB, | 
B,2 | 
B,/ B,/B, | 
G,G, | 
E,E, | 
E,2 |]  



